packages/bzx-common/src/assets/images/providers/logo_short___genericwallet.svg

<svg width="32" height="32" viewBox="0 0 32 32" fill="none" xmlns="http://www.w3.org/2000/svg">
<path d="M8.1 23.5999C8.1 23.4999 8.1 23.2999 8.2 23.1999C8.3 22.3999 8.7 21.6999 9.2 21.0999C10.3 19.8999 11.3 18.6999 12.4 17.5999C12.9 16.9999 13.6 16.5999 14.4 16.4999C15.6 16.2999 16.6 16.6999 17.4 17.5999C17.7 17.8999 17.7 18.3999 17.4 18.6999C17.1 18.9999 16.7 18.9999 16.4 18.6999C16 18.2999 15.7 17.9999 15.2 17.9999C14.5 17.8999 13.9 17.9999 13.3 18.5999C12.2 19.7999 11.1 20.9999 10 22.2999C9.4 22.9999 9.3 23.7999 9.5 24.6999C9.8 25.5999 10.3 26.0999 11.2 26.1999C11.9 26.2999 12.5 26.0999 13 25.4999C13.9 24.4999 14.3 23.9999 15.2 22.9999C15.3 22.8999 15.4 22.7999 15.6 22.7999C15.9 22.6999 16.2 22.8999 16.4 23.1999C16.6 23.4999 16.5 23.8999 16.3 24.0999C16.1 24.2999 15.9 24.4999 15.7 24.7999C15 25.5999 14.7 25.8999 14 26.6999C13.5 27.2999 12.9 27.5999 12.2 27.7999C11 28.0999 9.9 27.6999 9 26.6999C8.5 26.0999 8.2 25.3999 8 24.4999V24.1999C8.1 23.8999 8.1 23.6999 8.1 23.5999Z" fill="black"/>
<path d="M23.7008 14.5C23.7008 14.6 23.7008 14.8 23.6008 14.9C23.5008 15.7 23.1008 16.4 22.6008 17C21.5008 18.2 20.5008 19.4 19.4008 20.5C18.9008 21.1 18.2008 21.5 17.4008 21.6C16.2008 21.8 15.2008 21.4 14.4008 20.5C14.1008 20.2 14.1008 19.7 14.4008 19.4C14.7008 19.1 15.1008 19.1 15.4008 19.4C15.7008 19.7 16.1008 20 16.5008 20C17.2008 20.1 17.8008 20 18.4008 19.4C19.5008 18.2 20.6008 17 21.7008 15.7C22.3008 15 22.4008 14.2 22.2008 13.3C21.9008 12.4 21.4008 11.9 20.5008 11.8C19.8008 11.7 19.2008 11.9 18.7008 12.5C17.8008 13.5 17.4008 14 16.5008 15C16.4008 15.1 16.3008 15.2 16.1008 15.2C15.8008 15.3 15.5008 15.1 15.3008 14.8C15.1008 14.5 15.2008 14.1 15.4008 13.9C15.6008 13.7 15.8008 13.5 16.0008 13.2C16.7008 12.4 17.0008 12.1 17.7008 11.3C18.2008 10.7 18.8008 10.4 19.5008 10.2C20.7008 9.89997 21.8008 10.3 22.7008 11.3C23.2008 11.9 23.5008 12.6 23.7008 13.5V14.5Z" fill="black"/>
<path fill-rule="evenodd" clip-rule="evenodd" d="M22.8 0.100109C23.5 0.000109255 24.1 0.000109255 24.8 0.200109C25.4 0.400109 26 0.700109 26.6 1.20011C27.1 1.70011 27.5 2.30011 27.8 2.90011C28 3.60011 28.2 4.30011 28.2 5.00011V7.40011H26.4V5.00011C26.4 4.60011 26.3 4.10011 26.1 3.70011C25.9 3.30011 25.7 2.90011 25.4 2.70011C25.1 2.40011 24.7 2.20011 24.3 2.10011C23.9 2.00011 23.5 2.00011 23.1 2.10011L4 5.70011C3.4 5.80011 2.8 6.20011 2.4 6.70011C2 7.30011 1.8 8.00011 1.8 8.70011V12.7001H0V8.70011C0 7.50011 0.4 6.40011 1 5.50011C1.7 4.60011 2.6 4.00011 3.6 3.80011L22.8 0.100109Z" fill="black"/>
<path fill-rule="evenodd" clip-rule="evenodd" d="M4.4 8.69995C3 8.69995 1.8 9.99995 1.8 11.6V27.1C1.8 28.7 3 30 4.4 30H27.6C29 30 30.2 28.7 30.2 27.1V11.6C30.2 9.99995 29 8.69995 27.6 8.69995H4.4ZM0 11.6C0 8.89995 2 6.69995 4.4 6.69995H27.6C30 6.69995 32 8.89995 32 11.6V27.1C32 29.8 30 32 27.6 32H4.4C2 32 0 29.8 0 27.1V11.6Z" fill="black"/>
</svg>

<svg xmlns="http://www.w3.org/2000/svg" x="0px" y="0px" viewBox="0 0 32 32">
  <path d="M8.1 23.6c0-.1 0-.3.1-.4.1-.8.5-1.5 1-2.1 1.1-1.2 2.1-2.4 3.2-3.5.5-.6 1.2-1 2-1.1 1.2-.2 2.2.2 3 1.1.3.3.3.8 0 1.1-.3.3-.7.3-1 0-.4-.4-.7-.7-1.2-.7-.7-.1-1.3 0-1.9.6-1.1 1.2-2.2 2.4-3.3 3.7-.6.7-.7 1.5-.5 2.4.3.9.8 1.4 1.7 1.5.7.1 1.3-.1 1.8-.7.9-1 1.3-1.5 2.2-2.5.1-.1.2-.2.4-.2.3-.1.6.1.8.4.2.3.1.7-.1.9-.2.2-.4.4-.6.7-.7.8-1 1.1-1.7 1.9-.5.6-1.1.9-1.8 1.1-1.2.3-2.3-.1-3.2-1.1-.5-.6-.8-1.3-1-2.2v-.3c.1-.3.1-.5.1-.6z"/>
  <path d="M23.7 14.5c0 .1 0 .3-.1.4-.1.8-.5 1.5-1 2.1-1.1 1.2-2.1 2.4-3.2 3.5-.5.6-1.2 1-2 1.1-1.2.2-2.2-.2-3-1.1-.3-.3-.3-.8 0-1.1.3-.3.7-.3 1 0 .3.3.7.6 1.1.6.7.1 1.3 0 1.9-.6 1.1-1.2 2.2-2.4 3.3-3.7.6-.7.7-1.5.5-2.4-.3-.9-.8-1.4-1.7-1.5-.7-.1-1.3.1-1.8.7-.9 1-1.3 1.5-2.2 2.5-.1.1-.2.2-.4.2-.3.1-.6-.1-.8-.4-.2-.3-.1-.7.1-.9.2-.2.4-.4.6-.7.7-.8 1-1.1 1.7-1.9.5-.6 1.1-.9 1.8-1.1 1.2-.3 2.3.1 3.2 1.1.5.6.8 1.3 1 2.2v1z"/>
  <path fill-rule="evenodd" clip-rule="evenodd" d="M22.8.1c.7-.1 1.3-.1 2 .1.6.2 1.2.5 1.8 1 .5.5.9 1.1 1.2 1.7.2.7.4 1.4.4 2.1v2.4h-1.8V5c0-.4-.1-.9-.3-1.3-.2-.4-.4-.8-.7-1-.3-.3-.7-.5-1.1-.6-.4-.1-.8-.1-1.2 0L4 5.7c-.6.1-1.2.5-1.6 1-.4.6-.6 1.3-.6 2v4H0v-4c0-1.2.4-2.3 1-3.2.7-.9 1.6-1.5 2.6-1.7L22.8.1z"/>
  <path fill-rule="evenodd" clip-rule="evenodd" d="M4.4 8.7C3 8.7 1.8 10 1.8 11.6v15.5C1.8 28.7 3 30 4.4 30h23.2c1.4 0 2.6-1.3 2.6-2.9V11.6c0-1.6-1.2-2.9-2.6-2.9H4.4zM0 11.6c0-2.7 2-4.9 4.4-4.9h23.2c2.4 0 4.4 2.2 4.4 4.9v15.5c0 2.7-2 4.9-4.4 4.9H4.4C2 32 0 29.8 0 27.1V11.6z"/>
</svg>
